icons/slideshow-fill.svg

<svg xmlns="http://www.w3.org/2000/svg" width="24" height="24" fill="none"><g clip-path="url(#a)"><g><path fill="#121212" d="M13 21V23H11V21H3C2.73478 21 2.48043 20.8946 2.29289 20.7071C2.10536 20.5196 2 20.2652 2 20V6H22V20C22 20.2652 21.8946 20.5196 21.7071 20.7071C21.5196 20.8946 21.2652 21 21 21H13ZM8 10C7.40666 10 6.82664 10.1759 6.33329 10.5056C5.83994 10.8352 5.45542 11.3038 5.22836 11.8519C5.0013 12.4001 4.94189 13.0033 5.05764 13.5853C5.1734 14.1672 5.45912 14.7018 5.87868 15.1213C6.29824 15.5409 6.83279 15.8266 7.41473 15.9424C7.99667 16.0581 8.59987 15.9987 9.14805 15.7716C9.69623 15.5446 10.1648 15.1601 10.4944 14.6667C10.8241 14.1734 11 13.5933 11 13H8V10ZM13 10V12H19V10H13ZM13 14V16H19V14H13ZM2 3H22V5H2V3Z"/></g></g><defs><clipPath id="a"><rect width="24" height="24" fill="white"/></clipPath></defs></svg>

<svg width="24" height="24" fill="none" xmlns="http://www.w3.org/2000/svg"><g clip-path="url(#a)"><path d="M13 21v2h-2v-2H3a1 1 0 0 1-1-1V6h20v14a1 1 0 0 1-1 1h-8ZM8 10a3 3 0 1 0 3 3H8v-3Zm5 0v2h6v-2h-6Zm0 4v2h6v-2h-6ZM2 3h20v2H2V3Z" /></g><defs><clipPath id="a"><path fill="#fff" d="M0 0h24v24H0z"/></clipPath></defs></svg>
